X: 4113
M: C
L: 1/8
K: G
[|\
d<d ^c>d (3ed=c (3BAG | (3FED (3cBA G2B>d |]\
g<g b>a g>dB>d | G>Bd>B (3gfe (3dcB |\
c<c e>d c>ea>g |
(3fga (3gfe d2 e>f |\
g<g b>a g>dB>d | G>Bd>B g>dB>G |\
c<c e>c B<B d>B | (3ABc (3def g2-gz |]


